images/content/johnson-solids/gyroelongated-square-dipyramid.svg

<?xml version="1.0" encoding="UTF-8"?>
<svg xmlns="http://www.w3.org/2000/svg" xmlns:xlink="http://www.w3.org/1999/xlink" width="128pt" height="199pt" viewBox="0 0 128 199" version="1.2">
<g id="surface1">
<path style=" stroke:none;fill-rule:nonzero;fill:rgb(77.34375%,69.726562%,77.929688%);fill-opacity:1;" d="M 93.445312 131.265625 L 18.910156 132.71875 L 53.953125 69.273438 "/>
<path style="fill:none;stroke-width:3.72062;stroke-linecap:round;stroke-linejoin:round;stroke:rgb(0%,0%,0%);stroke-opacity:1;stroke-miterlimit:10;" d="M 934.453125 677.34375 L 189.101562 662.8125 L 539.53125 1297.265625 Z M 934.453125 677.34375 " transform="matrix(0.1,0,0,-0.1,0,199)"/>
<path style=" stroke:none;fill-rule:nonzero;fill:rgb(96.875%,69.921875%,46.508789%);fill-opacity:1;" d="M 53.953125 69.273438 L 5.3125 63.226562 L 18.910156 132.71875 "/>
<path style="fill:none;stroke-width:3.72062;stroke-linecap:round;stroke-linejoin:round;stroke:rgb(0%,0%,0%);stroke-opacity:1;stroke-miterlimit:10;" d="M 539.53125 1297.265625 L 53.125 1357.734375 L 189.101562 662.8125 Z M 539.53125 1297.265625 " transform="matrix(0.1,0,0,-0.1,0,199)"/>
<path style=" stroke:none;fill-rule:nonzero;fill:rgb(48.193359%,32.00531%,58.59375%);fill-opacity:1;" d="M 121.691406 65.753906 L 53.953125 69.273438 L 93.445312 131.265625 "/>
<path style="fill:none;stroke-width:3.72062;stroke-linecap:round;stroke-linejoin:round;stroke:rgb(0%,0%,0%);stroke-opacity:1;stroke-miterlimit:10;" d="M 1216.914062 1332.460938 L 539.53125 1297.265625 L 934.453125 677.34375 Z M 1216.914062 1332.460938 " transform="matrix(0.1,0,0,-0.1,0,199)"/>
<path style=" stroke:none;fill-rule:nonzero;fill:rgb(89.0625%,49.19281%,25.706482%);fill-opacity:1;" d="M 53.953125 69.273438 L 5.3125 63.226562 L 65.574219 4.890625 "/>
<path style="fill:none;stroke-width:3.72062;stroke-linecap:round;stroke-linejoin:round;stroke:rgb(0%,0%,0%);stroke-opacity:1;stroke-miterlimit:10;" d="M 539.53125 1297.265625 L 53.125 1357.734375 L 655.742188 1941.09375 Z M 539.53125 1297.265625 " transform="matrix(0.1,0,0,-0.1,0,199)"/>
<path style=" stroke:none;fill-rule:nonzero;fill:rgb(46.702576%,18.992615%,40.795898%);fill-opacity:1;" d="M 121.691406 65.753906 L 53.953125 69.273438 L 65.574219 4.890625 "/>
<path style="fill:none;stroke-width:3.72062;stroke-linecap:round;stroke-linejoin:round;stroke:rgb(0%,0%,0%);stroke-opacity:1;stroke-miterlimit:10;" d="M 1216.914062 1332.460938 L 539.53125 1297.265625 L 655.742188 1941.09375 Z M 1216.914062 1332.460938 " transform="matrix(0.1,0,0,-0.1,0,199)"/>
<path style=" stroke:none;fill-rule:nonzero;fill:rgb(0%,0%,53.90625%);fill-opacity:1;" d="M 120.78125 138.710938 L 93.445312 131.265625 L 121.691406 65.753906 "/>
<path style="fill:none;stroke-width:3.72062;stroke-linecap:round;stroke-linejoin:round;stroke:rgb(0%,0%,0%);stroke-opacity:1;stroke-miterlimit:10;" d="M 1207.8125 602.890625 L 934.453125 677.34375 L 1216.914062 1332.460938 Z M 1207.8125 602.890625 " transform="matrix(0.1,0,0,-0.1,0,199)"/>
<path style=" stroke:none;fill-rule:nonzero;fill:rgb(73.826599%,78.125%,88.671875%);fill-opacity:1;" d="M 93.445312 131.265625 L 18.910156 132.71875 L 65.574219 195.105469 "/>
<path style="fill:none;stroke-width:3.72062;stroke-linecap:round;stroke-linejoin:round;stroke:rgb(0%,0%,0%);stroke-opacity:1;stroke-miterlimit:10;" d="M 934.453125 677.34375 L 189.101562 662.8125 L 655.742188 38.945312 Z M 934.453125 677.34375 " transform="matrix(0.1,0,0,-0.1,0,199)"/>
<path style=" stroke:none;fill-rule:nonzero;fill:rgb(0%,19.993591%,72.851562%);fill-opacity:1;" d="M 120.78125 138.710938 L 93.445312 131.265625 L 65.574219 195.105469 "/>
<path style="fill:none;stroke-width:3.72062;stroke-linecap:round;stroke-linejoin:round;stroke:rgb(0%,0%,0%);stroke-opacity:1;stroke-miterlimit:10;" d="M 1207.8125 602.890625 L 934.453125 677.34375 L 655.742188 38.945312 Z M 1207.8125 602.890625 " transform="matrix(0.1,0,0,-0.1,0,199)"/>
<path style=" stroke:none;fill-rule:nonzero;fill:rgb(0%,0%,0%);fill-opacity:1;" d="M 18.910156 132.71875 L 29.0625 140.960938 L 5.3125 63.226562 "/>
<path style="fill:none;stroke-width:3.72062;stroke-linecap:round;stroke-linejoin:round;stroke:rgb(0%,0%,0%);stroke-opacity:1;stroke-miterlimit:10;" d="M 189.101562 662.8125 L 290.625 580.390625 L 53.125 1357.734375 Z M 189.101562 662.8125 " transform="matrix(0.1,0,0,-0.1,0,199)"/>
<path style=" stroke:none;fill-rule:nonzero;fill:rgb(0%,0%,0%);fill-opacity:1;" d="M 18.910156 132.71875 L 29.0625 140.960938 L 65.574219 195.105469 "/>
<path style="fill:none;stroke-width:3.72062;stroke-linecap:round;stroke-linejoin:round;stroke:rgb(0%,0%,0%);stroke-opacity:1;stroke-miterlimit:10;" d="M 189.101562 662.8125 L 290.625 580.390625 L 655.742188 38.945312 Z M 189.101562 662.8125 " transform="matrix(0.1,0,0,-0.1,0,199)"/>
<path style=" stroke:none;fill-rule:nonzero;fill:rgb(97.459412%,91.992188%,60.742188%);fill-opacity:1;" d="M 81.429688 58.070312 L 121.691406 65.753906 L 120.78125 138.710938 "/>
<path style="fill:none;stroke-width:3.72062;stroke-linecap:round;stroke-linejoin:round;stroke:rgb(0%,0%,0%);stroke-opacity:1;stroke-miterlimit:10;" d="M 814.296875 1409.296875 L 1216.914062 1332.460938 L 1207.8125 602.890625 Z M 814.296875 1409.296875 " transform="matrix(0.1,0,0,-0.1,0,199)"/>
<path style=" stroke:none;fill-rule:nonzero;fill:rgb(83.006287%,99.414062%,75.193787%);fill-opacity:1;" d="M 81.429688 58.070312 L 121.691406 65.753906 L 65.574219 4.890625 "/>
<path style="fill:none;stroke-width:3.72062;stroke-linecap:round;stroke-linejoin:round;stroke:rgb(0%,0%,0%);stroke-opacity:1;stroke-miterlimit:10;" d="M 814.296875 1409.296875 L 1216.914062 1332.460938 L 655.742188 1941.09375 Z M 814.296875 1409.296875 " transform="matrix(0.1,0,0,-0.1,0,199)"/>
<path style=" stroke:none;fill-rule:nonzero;fill:rgb(72.851562%,35.105896%,33.496094%);fill-opacity:1;" d="M 29.0625 140.960938 L 120.78125 138.710938 L 65.574219 195.105469 "/>
<path style="fill:none;stroke-width:3.72062;stroke-linecap:round;stroke-linejoin:round;stroke:rgb(0%,0%,0%);stroke-opacity:1;stroke-miterlimit:10;" d="M 290.625 580.390625 L 1207.8125 602.890625 L 655.742188 38.945312 Z M 290.625 580.390625 " transform="matrix(0.1,0,0,-0.1,0,199)"/>
<path style=" stroke:none;fill-rule:nonzero;fill:rgb(33.59375%,53.90625%,90.429688%);fill-opacity:1;" d="M 5.3125 63.226562 L 81.429688 58.070312 L 65.574219 4.890625 "/>
<path style="fill:none;stroke-width:3.72062;stroke-linecap:round;stroke-linejoin:round;stroke:rgb(0%,0%,0%);stroke-opacity:1;stroke-miterlimit:10;" d="M 53.125 1357.734375 L 814.296875 1409.296875 L 655.742188 1941.09375 Z M 53.125 1357.734375 " transform="matrix(0.1,0,0,-0.1,0,199)"/>
<path style=" stroke:none;fill-rule:nonzero;fill:rgb(39.305115%,41.796875%,76.756287%);fill-opacity:1;" d="M 5.3125 63.226562 L 81.429688 58.070312 L 29.0625 140.960938 "/>
<path style="fill:none;stroke-width:3.72062;stroke-linecap:round;stroke-linejoin:round;stroke:rgb(0%,0%,0%);stroke-opacity:1;stroke-miterlimit:10;" d="M 53.125 1357.734375 L 814.296875 1409.296875 L 290.625 580.390625 Z M 53.125 1357.734375 " transform="matrix(0.1,0,0,-0.1,0,199)"/>
<path style=" stroke:none;fill-rule:nonzero;fill:rgb(78.90625%,55.664062%,58.396912%);fill-opacity:1;" d="M 29.0625 140.960938 L 120.78125 138.710938 L 81.429688 58.070312 "/>
<path style="fill:none;stroke-width:3.72062;stroke-linecap:round;stroke-linejoin:round;stroke:rgb(0%,0%,0%);stroke-opacity:1;stroke-miterlimit:10;" d="M 290.625 580.390625 L 1207.8125 602.890625 L 814.296875 1409.296875 Z M 290.625 580.390625 " transform="matrix(0.1,0,0,-0.1,0,199)"/>
</g>
</svg>

<svg xmlns="http://www.w3.org/2000/svg" width="128pt" height="199pt" viewBox="0 0 128 199" version="1.2"><path style="stroke:none;fill-rule:nonzero;fill:#c5b2c7;fill-opacity:1" d="m93.445 131.266-74.535 1.453 35.043-63.446"/><path style="fill:none;stroke-width:3.72062;stroke-linecap:round;stroke-linejoin:round;stroke:#000;stroke-opacity:1;stroke-miterlimit:10" d="m934.453 677.344-745.351-14.532 350.43 634.454Zm0 0" transform="matrix(.1 0 0 -.1 0 199)"/><path style="stroke:none;fill-rule:nonzero;fill:#f7b277;fill-opacity:1" d="m53.953 69.273-48.64-6.046 13.597 69.492"/><path style="fill:none;stroke-width:3.72062;stroke-linecap:round;stroke-linejoin:round;stroke:#000;stroke-opacity:1;stroke-miterlimit:10" d="m539.531 1297.266-486.406 60.468 135.977-694.921Zm0 0" transform="matrix(.1 0 0 -.1 0 199)"/><path style="stroke:none;fill-rule:nonzero;fill:#7b5295;fill-opacity:1" d="m121.691 65.754-67.738 3.52 39.492 61.992"/><path style="fill:none;stroke-width:3.72062;stroke-linecap:round;stroke-linejoin:round;stroke:#000;stroke-opacity:1;stroke-miterlimit:10" d="m1216.914 1332.46-677.383-35.194 394.922-619.922Zm0 0" transform="matrix(.1 0 0 -.1 0 199)"/><path style="stroke:none;fill-rule:nonzero;fill:#e37d42;fill-opacity:1" d="m53.953 69.273-48.64-6.046L65.573 4.89"/><path style="fill:none;stroke-width:3.72062;stroke-linecap:round;stroke-linejoin:round;stroke:#000;stroke-opacity:1;stroke-miterlimit:10" d="m539.531 1297.266-486.406 60.468 602.617 583.36Zm0 0" transform="matrix(.1 0 0 -.1 0 199)"/><path style="stroke:none;fill-rule:nonzero;fill:#773068;fill-opacity:1" d="m121.691 65.754-67.738 3.52L65.574 4.89"/><path style="fill:none;stroke-width:3.72062;stroke-linecap:round;stroke-linejoin:round;stroke:#000;stroke-opacity:1;stroke-miterlimit:10" d="m1216.914 1332.46-677.383-35.194 116.211 643.828Zm0 0" transform="matrix(.1 0 0 -.1 0 199)"/><path style="stroke:none;fill-rule:nonzero;fill:#000089;fill-opacity:1" d="m120.781 138.71-27.336-7.444 28.246-65.512"/><path style="fill:none;stroke-width:3.72062;stroke-linecap:round;stroke-linejoin:round;stroke:#000;stroke-opacity:1;stroke-miterlimit:10" d="m1207.813 602.89-273.36 74.454 282.461 655.117Zm0 0" transform="matrix(.1 0 0 -.1 0 199)"/><path style="stroke:none;fill-rule:nonzero;fill:#bcc7e2;fill-opacity:1" d="m93.445 131.266-74.535 1.453 46.664 62.386"/><path style="fill:none;stroke-width:3.72062;stroke-linecap:round;stroke-linejoin:round;stroke:#000;stroke-opacity:1;stroke-miterlimit:10" d="m934.453 677.344-745.351-14.532 466.64-623.867Zm0 0" transform="matrix(.1 0 0 -.1 0 199)"/><path style="stroke:none;fill-rule:nonzero;fill:#0033ba;fill-opacity:1" d="m120.781 138.71-27.336-7.444-27.87 63.84"/><path style="fill:none;stroke-width:3.72062;stroke-linecap:round;stroke-linejoin:round;stroke:#000;stroke-opacity:1;stroke-miterlimit:10" d="m1207.813 602.89-273.36 74.454-278.71-638.399Zm0 0" transform="matrix(.1 0 0 -.1 0 199)"/><path style="stroke:none;fill-rule:nonzero;fill:#000;fill-opacity:1" d="m18.91 132.719 10.152 8.242-23.75-77.734"/><path style="fill:none;stroke-width:3.72062;stroke-linecap:round;stroke-linejoin:round;stroke:#000;stroke-opacity:1;stroke-miterlimit:10" d="m189.102 662.813 101.523-82.422-237.5 777.343Zm0 0" transform="matrix(.1 0 0 -.1 0 199)"/><path style="stroke:none;fill-rule:nonzero;fill:#000;fill-opacity:1" d="m18.91 132.719 10.152 8.242 36.512 54.144"/><path style="fill:none;stroke-width:3.72062;stroke-linecap:round;stroke-linejoin:round;stroke:#000;stroke-opacity:1;stroke-miterlimit:10" d="m189.102 662.813 101.523-82.422L655.742 38.945Zm0 0" transform="matrix(.1 0 0 -.1 0 199)"/><path style="stroke:none;fill-rule:nonzero;fill:#f9eb9b;fill-opacity:1" d="m81.43 58.07 40.261 7.684-.91 72.957"/><path style="fill:none;stroke-width:3.72062;stroke-linecap:round;stroke-linejoin:round;stroke:#000;stroke-opacity:1;stroke-miterlimit:10" d="m814.297 1409.297 402.617-76.836-9.101-729.57Zm0 0" transform="matrix(.1 0 0 -.1 0 199)"/><path style="stroke:none;fill-rule:nonzero;fill:#d4fec0;fill-opacity:1" d="m81.43 58.07 40.261 7.684L65.574 4.89"/><path style="fill:none;stroke-width:3.72062;stroke-linecap:round;stroke-linejoin:round;stroke:#000;stroke-opacity:1;stroke-miterlimit:10" d="m814.297 1409.297 402.617-76.836-561.172 608.633Zm0 0" transform="matrix(.1 0 0 -.1 0 199)"/><path style="stroke:none;fill-rule:nonzero;fill:#ba5a55;fill-opacity:1" d="m29.063 140.96 91.718-2.25-55.207 56.395"/><path style="fill:none;stroke-width:3.72062;stroke-linecap:round;stroke-linejoin:round;stroke:#000;stroke-opacity:1;stroke-miterlimit:10" d="m290.625 580.39 917.188 22.5-552.07-563.945Zm0 0" transform="matrix(.1 0 0 -.1 0 199)"/><path style="stroke:none;fill-rule:nonzero;fill:#5689e7;fill-opacity:1" d="M5.313 63.227 81.43 58.07 65.574 4.89"/><path style="fill:none;stroke-width:3.72062;stroke-linecap:round;stroke-linejoin:round;stroke:#000;stroke-opacity:1;stroke-miterlimit:10" d="m53.125 1357.734 761.172 51.563-158.555 531.797Zm0 0" transform="matrix(.1 0 0 -.1 0 199)"/><path style="stroke:none;fill-rule:nonzero;fill:#646bc4;fill-opacity:1" d="M5.313 63.227 81.43 58.07l-52.368 82.89"/><path style="fill:none;stroke-width:3.72062;stroke-linecap:round;stroke-linejoin:round;stroke:#000;stroke-opacity:1;stroke-miterlimit:10" d="m53.125 1357.734 761.172 51.563L290.625 580.39Zm0 0" transform="matrix(.1 0 0 -.1 0 199)"/><path style="stroke:none;fill-rule:nonzero;fill:#c98e95;fill-opacity:1" d="m29.063 140.96 91.718-2.25L81.43 58.07"/><path style="fill:none;stroke-width:3.72062;stroke-linecap:round;stroke-linejoin:round;stroke:#000;stroke-opacity:1;stroke-miterlimit:10" d="m290.625 580.39 917.188 22.5-393.516 806.407Zm0 0" transform="matrix(.1 0 0 -.1 0 199)"/></svg>
